web/packages/design/src/ResourceIcon/assets/microsoftonenote.svg

<svg width="72" height="72" viewBox="0 0 72 72" fill="none" xmlns="http://www.w3.org/2000/svg">
<path d="M55.2558 69.4865H19.81C18.1168 69.4865 16.7441 68.1139 16.7441 66.4206V5.57563C16.7441 3.88239 18.1168 2.50977 19.81 2.50977H68.9341C70.6273 2.50977 72 3.88239 72 5.57563V19.2539L55.2558 69.4865Z" fill="#CA64EA"/>
<path d="M72.0001 35.9981L63.628 41.0214L55.2559 35.9981V19.2539H72L72.0001 35.9981Z" fill="#AE4BD5"/>
<path d="M72 52.7422L63.6279 57.7655L55.2559 52.7422V35.998H72V52.7422Z" fill="#9332BF"/>
<path d="M55.2559 52.7422H72V66.3468C72 68.0808 70.5944 69.4864 68.8605 69.4864H55.2559V52.7422Z" fill="#7719AA"/>
<path opacity="0.2" d="M37.1168 15.9053H16.7441V57.7657H37.1168C38.8096 57.7602 40.1805 56.3893 40.186 54.6965V18.9745C40.1805 17.2817 38.8096 15.9108 37.1168 15.9053Z" fill="black"/>
<path opacity="0.2" d="M35.4424 17.5796H16.7441V59.4401H35.4424C37.1352 59.4345 38.5061 58.0636 38.5116 56.3709V20.6488C38.5061 18.956 37.1352 17.5851 35.4424 17.5796Z" fill="black"/>
<path opacity="0.5" d="M35.4424 17.5796H16.7441V56.0912H35.4424C37.1352 56.0857 38.5061 54.7148 38.5116 53.022V20.6488C38.5061 18.956 37.1352 17.5851 35.4424 17.5796Z" fill="black"/>
<path opacity="0.5" d="M33.768 17.5796H16.7441V56.0912H33.7679C35.4607 56.0857 36.8316 54.7148 36.8372 53.022V20.6488C36.8317 18.956 35.4607 17.5851 33.768 17.5796Z" fill="black"/>
<path d="M3.06922 17.5796H33.768C35.4631 17.5796 36.8372 18.9537 36.8372 20.6488V51.3476C36.8372 53.0427 35.4631 54.4168 33.768 54.4168H3.06922C1.37414 54.4168 0 53.0427 0 51.3476V20.6488C0 18.9537 1.37414 17.5796 3.06922 17.5796Z" fill="url(#paint0_linear_8803_4754)"/>
<path d="M10.0898 26.022H14.2508L22.427 39.2499C22.7987 39.8426 23.0778 40.3198 23.2642 40.6815H23.3178C23.2166 39.7811 23.1764 38.8748 23.1972 37.9689V26.022H26.747V45.9743H22.8522L14.3696 32.3797C14.0823 31.9312 13.8293 31.4616 13.6128 30.9749H13.5458C13.6313 31.9649 13.6665 32.9585 13.6513 33.952V45.9743H10.0898V26.022Z" fill="white"/>
<defs>
<linearGradient id="paint0_linear_8803_4754" x1="6.39937" y1="15.1814" x2="30.4378" y2="56.815" gradientUnits="userSpaceOnUse">
<stop stop-color="#8324B3"/>
<stop offset="0.5" stop-color="#7A1BAC"/>
<stop offset="1" stop-color="#621197"/>
</linearGradient>
</defs>
</svg>

<svg xmlns="http://www.w3.org/2000/svg" width="72" height="72" fill="none" viewBox="0 0 72 72"><path fill="#ca64ea" d="M55.256 69.487H19.81a3.066 3.066 0 0 1-3.066-3.066V5.576A3.066 3.066 0 0 1 19.81 2.51h49.124A3.066 3.066 0 0 1 72 5.576v13.678z"/><path fill="#ae4bd5" d="m72 35.998-8.372 5.023-8.372-5.023V19.254H72z"/><path fill="#9332bf" d="m72 52.742-8.372 5.024-8.372-5.024V35.998H72z"/><path fill="#7719aa" d="M55.256 52.742H72v13.605a3.14 3.14 0 0 1-3.14 3.14H55.257z"/><path fill="#000" d="M37.117 15.905H16.744v41.86h20.373a3.08 3.08 0 0 0 3.069-3.068V18.974a3.08 3.08 0 0 0-3.07-3.069" opacity=".2"/><path fill="#000" d="M35.442 17.58H16.744v41.86h18.698a3.08 3.08 0 0 0 3.07-3.07V20.65a3.08 3.08 0 0 0-3.07-3.07" opacity=".2"/><path fill="#000" d="M35.442 17.58H16.744v38.51h18.698a3.08 3.08 0 0 0 3.07-3.069V20.649a3.08 3.08 0 0 0-3.07-3.07" opacity=".5"/><path fill="#000" d="M33.768 17.58H16.744v38.51h17.024a3.08 3.08 0 0 0 3.07-3.069V20.649a3.08 3.08 0 0 0-3.07-3.07" opacity=".5"/><path fill="url(#a)" d="M3.07 17.58h30.698a3.07 3.07 0 0 1 3.07 3.069v30.699a3.07 3.07 0 0 1-3.07 3.069H3.069A3.07 3.07 0 0 1 0 51.347V20.65a3.07 3.07 0 0 1 3.07-3.07"/><path fill="#fff" d="M10.09 26.022h4.16l8.177 13.228q.557.89.837 1.431h.054q-.152-1.351-.12-2.712V26.022h3.549v19.952h-3.895L14.37 32.38q-.432-.674-.757-1.405h-.067q.128 1.486.105 2.977v12.022H10.09z"/><defs><linearGradient id="a" x1="6.399" x2="30.438" y1="15.181" y2="56.815" gradientUnits="userSpaceOnUse"><stop stop-color="#8324b3"/><stop offset=".5" stop-color="#7a1bac"/><stop offset="1" stop-color="#621197"/></linearGradient></defs></svg>
